src/actions/symbolic/selection-lower-symbolic.svg

<svg width="16" height="16" version="1.1" xmlns="http://www.w3.org/2000/svg">
 <path class="ColorScheme-Text" d="m7 3v1h7v-1zm2 2v1h5v-1zm-1 2v1h6v-1zm1 2v1h5v-1zm-1 4v1h6v-1z" color="#363636" fill="currentColor" opacity=".35"/>
 <path class="ColorScheme-Text" d="m4 2v6.0312l-1.3438-1.4375-0.65625 0.6875 2.3125 2.5 0.1875 0.21875 0.1875-0.21875 2.3125-2.5-0.65625-0.6875-1.3438 1.4375v-6.0312zm-2 9v1h12v-1z" color="#363636" fill="currentColor"/>
</svg>

<svg xmlns="http://www.w3.org/2000/svg" width="16" height="16">
    <path fill="currentColor" fill-opacity=".7" d="M7 3v1h7V3zm2 2v1h5V5zM8 7v1h6V7zm1 2v1h5V9zm-1 4v1h6v-1z" class="ColorScheme-Text" color="#050505" opacity=".35"/>
    <path fill="currentColor" fill-opacity=".7" d="M4 2v6.031L2.656 6.594 2 7.28l2.312 2.5L4.5 10l.187-.219L7 7.281l-.656-.687L5 8.03V2zm-2 9v1h12v-1z" class="ColorScheme-Text" color="#050505"/>
</svg>
